X: 15957
T: Grant Lamb's
R: reel
M: 4/4
K: Cmajor
EF|:GcBc AcGc|ecgc egce|fedc BGAB|cdea gGEF|
GcBc AcGc|ecgc egce|fedc BGAB|1 ecBd cGEF:|2 ecBd cG,A,B,||
|:CGEC A,CG,A,|CEGc AGEG|(3cBA GF AFDC|B,CDE DB,G,B,|
C2EC A,CG,A,|CEGc AGEG|(3cBA GF AFDC|1 B,CDB, ~C3G,:|2 B,CDB, CDEF||

